X: 19199
T: Island Of Woods, The
R: reel
M: 4/4
K: Dmajor
dc|B3A A2AB|A2AB AFdc|B3A B3A|B2Bc BA d/e/f|
g3f edfe|f2ed d2cA|d2cA GAFD|1 E4EA:|2 E4EE||
F/G/A|BAAF E3D|EFED D2 F/G/A|BdAd GDFD|E4EE F/G/A|
BAAF E3D|EFED D2 F/G/A|GAFD EA,DC|A,4A,A,||

